X:NEW 15-14
C:David Linton <djl@colourcountry.net>
M:3/2
K:Am
P:A
"F"edcB |"G"d2B2 G4 "Am"cBAG |1,3 "Em"B2G2 E4 :|2,4 "Em"B2G2 "A"A4 :|
P:B
"D"aged |"C"c2de "G"d4 "Am"cBAG |1,3 "Em"B2G2 E4 :|2,4 "Em"B2G2 "A"A4 :|

